X: 6
T: Pollonesse #6
M: 3/4
L: 1/16
K: D
Q:120
d2cd e2de f2d2|e2d2 c2B2 c2A2|d2cd e2de f2d2|e2dcd4D4:|
|:f2ef g2fg a4|f2ed c2e2A4| F2E2 F2D2A4|F2E2 F2D2A4|
F2ED D2E2 A,4|f2a2 e2g2 d2f2|e2dc d4D4:|

